X:1
T: General MacDonald's Reel
C:Niel Gow
R:Reel
Q: 232
K:C
M:4/4
L:1/8
|:f|ec c2 Gc c2|ec c2 eg ga|ec c2 Gc EG|F_E D_B, DF Ff|
ec c2 Gc c2|ec c2 eg ga|ec c2 Gc EG|F_E D_B, DF Ff|
ec gc ac gc|ec gc eg ga|ec gc ac gc|d1/2c1/2_B fB df fg|
e1/2d1/2c gc ac gc|ec gc ef ga|ec dB cG AF|D1/2_E1/2F _B2 D_B, B,:|
